cssgg/math-percent.svg

<svg
  width="24"
  height="24"
  viewBox="0 0 24 24"
  fill="none"
  xmlns="http://www.w3.org/2000/svg"
>
  <path
    d="M16.2426 6.34319C16.6331 5.95266 17.2663 5.95266 17.6568 6.34319C18.0474 6.73371 18.0474 7.36688 17.6568 7.7574L7.75734 17.6569C7.36681 18.0474 6.73365 18.0474 6.34313 17.6569C5.9526 17.2664 5.9526 16.6332 6.34313 16.2427L16.2426 6.34319Z"
    fill="currentColor"
  />
  <path
    d="M9.87866 9.87872C9.09761 10.6598 7.83128 10.6598 7.05023 9.87872C6.26918 9.09767 6.26918 7.83134 7.05023 7.05029C7.83128 6.26924 9.09761 6.26924 9.87866 7.05029C10.6597 7.83134 10.6597 9.09767 9.87866 9.87872Z"
    fill="currentColor"
  />
  <path
    d="M14.1213 16.9498C14.9023 17.7308 16.1687 17.7308 16.9497 16.9498C17.7308 16.1687 17.7308 14.9024 16.9497 14.1214C16.1687 13.3403 14.9023 13.3403 14.1213 14.1214C13.3403 14.9024 13.3403 16.1687 14.1213 16.9498Z"
    fill="currentColor"
  />
</svg>

<svg viewBox="0 0 24 24" xmlns="http://www.w3.org/2000/svg"><g><path d="M16.24 6.34c.39-.4 1.02-.4 1.41 0 .39.39.39 1.02 0 1.41l-9.9 9.89c-.4.39-1.03.39-1.42 0 -.4-.4-.4-1.03 0-1.42l9.89-9.9Z"/><path d="M9.87 9.87c-.79.78-2.05.78-2.83 0 -.79-.79-.79-2.05 0-2.83 .78-.79 2.04-.79 2.82 0 .78.78.78 2.04 0 2.82Z"/><path d="M14.12 16.94c.78.78 2.04.78 2.82 0 .78-.79.78-2.05 0-2.83 -.79-.79-2.05-.79-2.83 0 -.79.78-.79 2.04 0 2.82Z"/></g></svg>
